X:966
T:Hewlett
T:Planxty Hewlett
R:Waltz/Air
O:Ireland
C:Turlough Carolan
D:Chieftain's...
B:Fiddler's Fakebook
B:The Complete Works of O'Carolan
S:My arrangement from various sources
Z:Transcription, arrangement, chords:Mike Long
M:3/4
L:1/8
K:D
A,A,|\
"D"D2 D2 FG|"A"AB c2 A2|"Bm"d2 f2 fg|"G"fe d3 B|\
"D"A2 F2 F2|"G"G2 GB AG|"D"AF D2 "A"D2|"D"D4:|
|:z2|\
"D"A2 D2 AB|A2 D2 AB|A2 d2 de|dc BA GF|\
"Em"G2 G,2 G>A|"G"G2 G,2 G>A|G2 GA BG|"D"AF D3 D/D/|
"D"FE F2 G2|"A"AB c2 A2|"Bm"fe fg ag|"G"fe d3B|\
"D"A2 F2 F2|"G"G3 A BG|"D"AF D2D2|D4:|
